X:162
T:Reel 162
L:1/8
M: 4/4
K: A Major
E(3EFEA,EFA,2|EFAcBAFA|EFAEFA,A,2|(3FGABcdcBA|EFCEA,ECE|(3FGABcdcBd|ceAeFdAF|EFABcAA2:||:AcecAecA|F2AFF3F|EAceAcec|d2cdBcdB|AceAcAAc|F2AFFAd2|ceecBdcB|AFECB,A,A,2:|.abc